svg/chart_timeline.svg

<svg xmlns="http://www.w3.org/2000/svg" viewBox="0 0 24 24"><path d="M2 2h2v18h18v2H2zm5 8h10v3H7zm4 5h10v3H11zM6 4h16v4h-2V6H8v2H6z"/></svg>

<?xml version="1.0" encoding="UTF-8"?><!DOCTYPE svg PUBLIC "-//W3C//DTD SVG 1.1//EN" "http://www.w3.org/Graphics/SVG/1.1/DTD/svg11.dtd"><svg xmlns="http://www.w3.org/2000/svg" xmlns:xlink="http://www.w3.org/1999/xlink" version="1.1" id="mdi-chart-timeline" width="24" height="24" viewBox="0 0 24 24"><path d="M2,2H4V20H22V22H2V2M7,10H17V13H7V10M11,15H21V18H11V15M6,4H22V8H20V6H8V8H6V4Z" /></svg>
